assets/img/braze_icons/loading-03.svg

<svg fill="none" height="24" viewBox="0 0 24 24" width="24" xmlns="http://www.w3.org/2000/svg"><path clip-rule="evenodd" d="m19.7776 4.22191c-4.2959-4.2958784-11.25982-4.2958784-15.55569 0-4.2958784 4.29587-4.2958784 11.25979 0 15.55569 4.29587 4.2959 11.25979 4.2959 15.55569 0s4.2959-11.25982 0-15.55569zm-6.6546-1.15194c1.9158.23967 3.7693 1.09505 5.2404 2.56615.5562.5562 1.0244 1.16706 1.4045 1.81527.0085.01673.0175.03332.027.04975.9909 1.71235.4878 3.90006-1.1528 5.01076-.0083.0056-.0166.0114-.0248.0173-1.2606.8378-2.8936.84-4.1517.0207-.0545-.0355-.1082-.0725-.1612-.111l-.9065-.6591.6596-.9071c1.4298-1.96602 1.4752-4.6169.1144-6.6319-.0072-.01062-.0146-.02109-.0221-.03142-.297-.43314-.6433-.81392-1.0268-1.13941zm-5.69186 1.17351c-.64069.37803-1.24462.84224-1.79502 1.39264-1.47159 1.47159-2.32705 3.3258-2.56639 5.24228.32537-.3835.70605-.7299 1.13919-1.02703.01029-.00755.02074-.0149.03132-.02205 2.01428-1.36122 4.6652-1.31536 6.63196.11406l.9081.66032.6596-.90717c.0385-.05296.0755-.1067.111-.16113.8193-1.25815.8171-2.89113-.0207-4.15176-.0059-.00817-.0117-.01643-.0173-.02478-1.1108-1.64058-3.29843-2.14369-5.01077-1.1528-.02337.01352-.04705.02599-.07099.03742zm-3.19353 12.31492c.37908.6444.84525 1.2517 1.39851 1.805 1.47136 1.4713 3.32524 2.3268 5.24138 2.5663-.3827-.3251-.7285-.7052-1.02514-1.1376-.00755-.0103-.01491-.0208-.02206-.0314-1.36121-2.0142-1.31535-4.6652.11406-6.632l.65984-.9074-.90779-.6601c-1.27873-.9292-2.99917-.9641-4.31285-.0905-.00817.0059-.01644.0117-.02479.0173-1.63919 1.1104-2.1424 3.2963-1.1524 5.0119.01113.0193.02154.0388.03124.0585zm12.29399 3.2192c.6543-.3819 1.2709-.8533 1.8318-1.4142 1.4709-1.4709 2.3262-3.324 2.566-5.2395-.3251.3827-.7054.7284-1.1378 1.0249-.0103.0076-.0208.0149-.0314.0221-2.015 1.3608-4.6659 1.3154-6.6319-.1144l-.9065-.6591-.6596.9072c-.9292 1.2787-.9642 2.9991-.0905 4.3128.0035.0049.007.0098.0104.0147.0023.0034.0046.0067.0069.0101 1.1104 1.6392 3.2963 2.1424 5.0119 1.1524.0102-.0059.0204-.0115.0307-.017z" fill="#801ed7" fill-rule="evenodd"/></svg>

<svg width="24" height="24" viewBox="0 0 24 24" fill="none" xmlns="http://www.w3.org/2000/svg">
<path fill-rule="evenodd" clip-rule="evenodd" d="M19.7776 4.22191C15.4817 -0.0739684 8.51778 -0.0739684 4.22191 4.22191C-0.0739684 8.51778 -0.0739684 15.4817 4.22191 19.7776C8.51778 24.0735 15.4817 24.0735 19.7776 19.7776C24.0735 15.4817 24.0735 8.51778 19.7776 4.22191ZM13.123 3.06997C15.0388 3.30964 16.8923 4.16502 18.3634 5.63612C18.9196 6.19232 19.3878 6.80318 19.7679 7.45139C19.7764 7.46812 19.7854 7.48471 19.7949 7.50114C20.7858 9.21349 20.2827 11.4012 18.6421 12.5119C18.6338 12.5175 18.6255 12.5233 18.6173 12.5292C17.3567 13.367 15.7237 13.3692 14.4656 12.5499C14.4111 12.5144 14.3574 12.4774 14.3044 12.4389L13.3979 11.7798L14.0575 10.8727C15.4873 8.90668 15.5327 6.2558 14.1719 4.2408C14.1647 4.23018 14.1573 4.21971 14.1498 4.20938C13.8528 3.77624 13.5065 3.39546 13.123 3.06997ZM7.43114 4.24348C6.79045 4.62151 6.18652 5.08572 5.63612 5.63612C4.16453 7.10771 3.30907 8.96192 3.06973 10.8784C3.3951 10.4949 3.77578 10.1485 4.20892 9.85137C4.21921 9.84382 4.22966 9.83647 4.24024 9.82932C6.25452 8.4681 8.90544 8.51396 10.8722 9.94338L11.7803 10.6037L12.4399 9.69653C12.4784 9.64357 12.5154 9.58983 12.5509 9.5354C13.3702 8.27725 13.368 6.64427 12.5302 5.38364C12.5243 5.37547 12.5185 5.36721 12.5129 5.35886C11.4021 3.71828 9.21447 3.21517 7.50213 4.20606C7.47876 4.21958 7.45508 4.23205 7.43114 4.24348ZM4.23761 16.5584C4.61669 17.2028 5.08286 17.8101 5.63612 18.3634C7.10748 19.8347 8.96136 20.6902 10.8775 20.9297C10.4948 20.6046 10.149 20.2245 9.85236 19.7921C9.84481 19.7818 9.83745 19.7713 9.8303 19.7607C8.46909 17.7465 8.51495 15.0955 9.94436 13.1287L10.6042 12.2213L9.69641 11.5612C8.41768 10.632 6.69724 10.5971 5.38356 11.4707C5.37539 11.4766 5.36712 11.4824 5.35877 11.488C3.71958 12.5984 3.21637 14.7843 4.20637 16.4999C4.2175 16.5192 4.22791 16.5387 4.23761 16.5584ZM16.5316 19.7776C17.1859 19.3957 17.8025 18.9243 18.3634 18.3634C19.8343 16.8925 20.6896 15.0394 20.9294 13.1239C20.6043 13.5066 20.224 13.8523 19.7916 14.1488C19.7813 14.1564 19.7708 14.1637 19.7602 14.1709C17.7452 15.5317 15.0943 15.4863 13.1283 14.0565L12.2218 13.3974L11.5622 14.3046C10.633 15.5833 10.598 17.3037 11.4717 18.6174C11.4752 18.6223 11.4787 18.6272 11.4821 18.6321C11.4844 18.6355 11.4867 18.6388 11.489 18.6422C12.5994 20.2814 14.7853 20.7846 16.5009 19.7946C16.5111 19.7887 16.5213 19.7831 16.5316 19.7776Z" fill="#801ED7"/>
</svg>
